!!!!SEGMENT: pl-sa--351-a-vii-111--002_elsner-jozef--missa-in-f-gloria.krn
!!!cenid: 18xx:1266
!!!COM: Elsner, Józef
!!!COM-rismID: pe30000957
!!!CDT: 1769/06/01-1854/04/18
!!!CNT: Polish
!!!OPR: Missa in F
!!!OTL: Gloria
!!!OMV: 002
!!!PDT: 1828
!!!AGN: Sacred; Mass
!!!SMS-siglum: PL-SA
!!!SMS-shelfmark: 351/A VII 111
!!!SMS-shelfwork: 001-002 M
!!!SMS-variant:
!!!SMS-altvar:
!!!NIFC-rismSourceID: 1001070170
!!!NIFC-islandoraID:
!!!URL-pdf-islandora:
!!!URL-scan: https://bc.bdsandomierz.pl/dlibra/publication/1655/edition/1623/content @EN{Scan in the Sandomierz Diocese Digital Library} @PL{Skany w portalu Cyfrowa Biblioteka Diecezjalna w Sandomierzu}
!!!ONB-nifc: UWAGA: części Mszy: 1. Kyrie, 2. Gloria, 3. Credo, 4. Sanctus, 5. Benedictus, 6. Agnus Dei
!!!AIN: 1 alto 1 bass 1 soprn 1 tenor
!!!key: F
**kern	**text	**dynam	**kern	**text	**dynam	**kern	**text	**dynam	**kern	**text	**dynam
*part4	*part4	*part4	*part3	*part3	*part3	*part2	*part2	*part2	*part1	*part1	*part1
*staff4	*staff4	*	*staff3	*staff3	*	*staff2	*staff2	*	*staff1	*staff1	*
*I"Baſso.	*	*	*I"Tenore.	*	*	*I"Alto.	*	*	*I"Canto.	*	*
*I'B	*	*	*I'T	*	*	*I'A	*	*	*I'S	*	*
*ICvox	*	*	*ICvox	*	*	*ICvox	*	*	*ICvox	*	*
*Ibass	*	*	*Itenor	*	*	*Ialto	*	*	*Isoprn	*	*
*clefF4	*	*	*clefC3	*	*	*clefC4	*	*	*clefC1	*	*
*k[b-]	*	*	*k[b-]	*	*	*k[b-]	*	*	*k[b-]	*	*
*F:	*	*	*F:	*	*	*F:	*	*	*F:	*	*
*M2/2	*	*	*M2/2	*	*	*M2/2	*	*	*M2/2	*	*
*met(c|)	*	*	*met(c|)	*	*	*met(c|)	*	*	*met(c|)	*	*
=1	=1	=1	=1	=1	=1	=1	=1	=1	=1	=1	=1
!	!	!	!	!	!	!	!	!	!LO:TX:t=P:problem=układ partytury zgodnie z #282	!	!
!!LO:TX:t=P:problem: 4,8\ left or middle:global	!	!	!	!	!	!	!	!	!	!	!
!LO:TX:t=P:problem= na materiale muzycznym zapisano różne daty czarnym tuszem (prawdopodobnie ręką kopisty)	!	!	!	!	!	!	!	!	!	!	!
!LO:TX:t=P:problem=oznaczenie metryczne alla breve z ogonkiem	!	!	!LO:TX:t=P:problem=oznaczenie metryczne alla breve z ogonkiem	!	!	!LO:TX:t=P:problem=oznaczenie metryczne alla breve z ogonkiem	!	!	!LO:TX:t=P:problem=oznaczenie metryczne alla breve z ogonkiem	!	!
!LO:TX:a:B:t=Allegro.	!	!	!LO:TX:a:B:t=Allegro.	!	!	!LO:TX:a:B:t=Allegro	!	!	!LO:TX:a:B:t=Allegro.	!	!
!	!	!	!	!	!LO:DY:b	!	!	!	!	!	!
4.F\	Glo-	.	4.a\	Glo-	f	4.c\	Glo-	.	4.ff\	Glo-	f
8F\	-ri-	.	8a\	-ri-	.	8f\	-ri-	.	8cc\	-ri-	.
4F\	-a	.	4a\	-a	.	4f\	-a	.	4cc\	-a	.
4r	.	.	4r	.	.	4r	.	.	4r	.	.
=2	=2	=2	=2	=2	=2	=2	=2	=2	=2	=2	=2
!LO:SIC:s=4.F	!	!	!	!	!	!	!	!	!	!	!
4.E\	Glo-	.	4.a\	Glo-	.	4.f\	Glo-	.	4.cc\	Glo-	.
8F\	-ri-	.	8f\	-ri-	.	8c\	-ri-	.	8a\	-ri-	.
4F\	-a	.	4f\	-a	.	4c\	-a	.	4a\	-a	.
4r	.	.	4r	.	.	4r	.	.	4r	.	.
=3	=3	=3	=3	=3	=3	=3	=3	=3	=3	=3	=3
4E\	in	.	4g\	in	.	4c\	in	.	4b-\	in	.
!	!	!	!	!	!	!	!	!	!	!	!LO:DY:a
4F\	ex-	.	4f\	ex-	.	4c\	ex-	.	4a\	ex-	<
4D/	-cel-	.	4a\	-cel-	.	4f\	-cel-	.	4dd\	-cel-	.
4C/	-sis	.	4a\	-sis	.	4e\	-sis	.	4ee\	-sis	[[
=4	=4	=4	=4	=4	=4	=4	=4	=4	=4	=4	=4
*	*	*	*2\right	*	*	*2\right	*	*	*2\right	*	*
!	!	!	!	!	!	!	!	!	!LO:TX:t=P:problem=diminuendo like accent	!	!
2BBn/	De-	.	2g\	De-	.	2d\	De-	.	2ff^\	De-	.
4BB/	-o.	.	4g\	-o	.	4d\	-o.	.	4ff\	-o	.
4r	.	.	4r	.	.	4r	.	.	4r	.	.
=5	=5	=5	=5	=5	=5	=5	=5	=5	=5	=5	=5
4.C/	Glo-	.	4.g\	Glo-	.	4.c\	Glo-	.	4.ee\	Glo-	.
8C/	-ri-	.	8g\	-ri-	.	8e\	-ri-	.	8cc\	-ri-	.
4C/	-a	.	4g\	-a	.	4e\	-a	.	4cc\	-a	.
4r	.	.	4r	.	.	4r	.	.	4r	.	.
!LO:PB:g=original	!	!	!	!	!	!	!	!	!	!	!
=6	=6	=6	=6	=6	=6	=6	=6	=6	=6	=6	=6
4.C/	Glo-	.	4.g\	Glo-	.	4.e\	Glo-	.	4.cc\	Glo-	.
8C/	-ri-	.	8e\	-ri-	.	8c\	-ri-	.	8g\	-ri-	.
4C/	-a	.	4e\	-a	.	4c\	-a	.	4g\	-a	.
4r	.	.	4r	.	.	4r	.	.	4r	.	.
!	!	!	!	!	!	!LO:PB:g=original	!	!LO:PB:g=original	!	!	!
!	!	!	!LO:PB:g=original	!	!	!	!	!	!	!	!
=7	=7	=7	=7	=7	=7	=7	=7	=7	=7	=7	=7
4F\	in	.	4f\	in	.	4c\	in	.	4a\	in	.
!	!	!	!	!	!	!	!	!LO:DY:a	!	!	!LO:DY:a
4D\	ex-	.	4f\	ex-	.	4B-\	ex-	<	4b-\	ex-	<
4BB-/	-cel-	.	4f\	-cel-	.	4B-\	-cel-	.	4dd\	-cel-	.
4AA/	-sis	.	4f#X\	-sis	.	4d\	-sis	[[	4cc\	-sis	[[
=8	=8	=8	=8	=8	=8	=8	=8	=8	=8	=8	=8
!	!	!	!	!	!	!	!	!	!LO:TX:t=P:problem=diminuendo like accent	!	!
2GG/	De-	.	2g\	De-	.	2d^\	De-	.	2b-^\	De-	.
4GG/	-o.	.	4g\	-o.	.	4d\	-o	.	4b-\	-o	.
4r	.	.	4r	.	.	4r	.	.	4r	.	.
=9	=9	=9	=9	=9	=9	=9	=9	=9	=9	=9	=9
!LO:TX:a:t=2.	!	!	!	!	!	!LO:TX:a:t=1.	!	!	!	!	!LO:DY:a
1r	.	.	4g\	Et	.	1r	.	.	4b-\	Et	p
.	.	.	4f\	in	.	.	.	.	4a\	in	.
.	.	.	4e\	ter-	.	.	.	.	4g\	ter-	.
.	.	.	4d\	-ra	.	.	.	.	4f\	-ra	.
=10	=10	=10	=10	=10	=10	=10	=10	=10	=10	=10	=10
!	!	!	!	!	!	!	!	!LO:DY:a	!	!	!
1r	.	.	2c\	pax	.	4c\	Et	p	2e/	pax	.
.	.	.	.	.	.	4B-\	in	.	.	.	.
.	.	.	4r	.	.	4A\	ter-	.	4r	.	.
.	.	.	4e\	ho-	.	4G/	-ra	.	4g\	ho-	.
=11	=11	=11	=11	=11	=11	=11	=11	=11	=11	=11	=11
!	!	!LO:DY:a	!	!	!	!	!	!	!	!	!
4F\	Et	p	4.f\	-mi-	.	2F/	pax	.	4.a\	-mi-	.
4E\	in	.	.	.	.	.	.	.	.	.	.
.	.	.	8f\	-ni-	.	.	.	.	8a\	-ni-	.
4D\	ter-	.	4f\	-bus	.	4r	.	.	4a\	-bus	.
4C\	-ra	.	4f\	ho-	.	4A/	ho-	.	4cc\	ho-	.
=12	=12	=12	=12	=12	=12	=12	=12	=12	=12	=12	=12
2BB-/	pax	.	4.f\	-mi-	.	4.B-\	-mi-	.	4.dd\	-mi-	.
!	!	!	!	!	!	!	!	!LO:DY:a	!	!	!LO:DY:a
.	.	.	8f\	-ni-	.	8B-\	-ni-	<	8dd\	-ni-	<
4r	.	.	4f\	-bus	.	4B-\	-bus	.	4dd\	-bus	.
4D/	ho-	.	4f\	ho-	.	4B-\	ho-	[[	[4ff\	ho-	[[
!	!	!	!LO:PB:g=original	!	!	!	!	!	!	!	!
=13	=13	=13	=13	=13	=13	=13	=13	=13	=13	=13	=13
4.C/	-mi-	.	4.g\	-mi-	.	4.B-\	-mi-	.	4.ff\]	-mi-	.
8C/	-ni-	.	8g\	-ni-	.	8B-\	-ni-	.	8ee\	-ni-	.
4C/	-bus	.	4g\	-bus	.	4B-\	-bus	.	4ee\	-bus	.
4r	.	.	(4g\	bo-	.	(4B-\	bo-	.	4r	.	.
!	!	!	!	!	!	!LO:PB:g=original	!	!LO:PB:g=original	!	!	!
!LO:PB:g=original	!	!	!	!	!	!	!	!	!	!	!
=14	=14	=14	=14	=14	=14	=14	=14	=14	=14	=14	=14
!	!	!	!	!	!	!	!	!	!	!	!LO:DY:b
!	!	!LO:DY:b	!	!	!	!	!	!	!	!	!
4D/	bo-	f	2f\)	-nae	.	2A/)	-nae	.	4ff\	bo-	f
4F\	-nae	.	.	.	.	.	.	.	4dd\	-nae	.
4AA/	vo-	.	4f\	vo-	.	4c\	vo-	.	4cc\	vo-	.
4BB-/	-lun-	.	4f\	-lun-	.	4d\	-lun-	.	4b-\	-lun-	.
=15	=15	=15	=15	=15	=15	=15	=15	=15	=15	=15	=15
1C	-ta-	.	2f\	-ta-	.	1c	-ta-	.	(2a\	-ta-	.
.	.	.	2e\	.	.	.	.	.	2g\)	.	.
=16	=16	=16	=16	=16	=16	=16	=16	=16	=16	=16	=16
*2\right	*	*	*	*	*	*	*	*	*	*	*
2.F\	-tis	.	2.f\	-tis	.	2.A\	-tis	.	2.f/	-tis	.
4r	.	.	8a\L	lau-	.	4r	.	.	4r	.	.
.	.	.	8g\J	.	.	.	.	.	.	.	.
=17	=17	=17	=17	=17	=17	=17	=17	=17	=17	=17	=17
!LO:TX:a:t=1.	!	!	!	!	!	!LO:TX:a:t=1.	!	!	!	!	!
1r	.	.	4f\	-da-	.	1r	.	.	2r	.	.
.	.	.	(8e\L	.	.	.	.	.	.	.	.
.	.	.	8d\J)	.	.	.	.	.	.	.	.
.	.	.	4e\	.	.	.	.	.	4r	.	.
.	.	.	4f\	-mus	.	.	.	.	8dd\L	lau-	.
.	.	.	.	.	.	.	.	.	8cc\J	.	.
=18	=18	=18	=18	=18	=18	=18	=18	=18	=18	=18	=18
!LO:N:vis=1	!	!	!	!	!	!	!	!	!	!	!
2rBB	.	.	1g	te	.	2rF	.	.	4b-\	-da-	.
.	.	.	.	.	.	.	.	.	(8a\L	.	.
.	.	.	.	.	.	.	.	.	8g\J)	.	.
4r	.	.	.	.	.	4r	.	.	4a\	.	.
8G\L	lau-	.	.	.	.	4d\	lau-	.	4b-\	-mus	.
8F\J	.	.	.	.	.	.	.	.	.	.	.
!	!	!	!LO:PB:g=original	!	!	!	!	!	!	!	!
=19	=19	=19	=19	=19	=19	=19	=19	=19	=19	=19	=19
4E\	-da-	.	2g\	.	.	4c\	-da-	.	[1cc	te	.
(8D\L	.	.	.	.	.	4c\	-mus.	.	.	.	.
8C\J)	.	.	.	.	.	.	.	.	.	.	.
4D\	-mus	.	4r	.	.	4r	.	.	.	.	.
4E\	.	.	4g\	lau-	.	8c\L	lau-	.	.	.	.
.	.	.	.	.	.	8B-\J	.	.	.	.	.
=20	=20	=20	=20	=20	=20	=20	=20	=20	=20	=20	=20
1F	te	.	4f\	-da-	.	4A/	-da-	.	2cc\]	.	.
.	.	.	4f\	-mus	.	(8G/L	.	.	.	.	.
.	.	.	.	.	.	8F/J)	.	.	.	.	.
.	.	.	4r	.	.	4G/	.	.	4r	.	.
.	.	.	(4a\	be-	.	4A/	-mus.	.	(4cc\	be-	.
!	!	!	!	!	!	!LO:PB:g=original	!	!	!	!	!
=21	=21	=21	=21	=21	=21	=21	=21	=21	=21	=21	=21
2F\	.	.	2g\)	.	.	2Bn\	te	.	2dd\)	.	.
4.F\	be-	.	4.g\	.	.	4.B\	be-	.	4.dd\	.	.
8F\	-ne-	.	8g\	-ne-	.	8B\	-ne-	.	8dd\	-ne-	.
!	!	!	!	!	!	!	!	!	!LO:PB:g=original	!	!
!LO:PB:g=original	!	!	!	!	!	!	!	!	!	!	!
=22	=22	=22	=22	=22	=22	=22	=22	=22	=22	=22	=22
4E\	-di-	.	4g\	-di-	.	4c\	-di-	.	4cc\	-di-	.
8E\	-ci-	.	8g\	-ci-	.	8c\	-ci-	.	8cc\	-ci-	.
8E\	-mus	.	8g\	-mus	.	8c\	-mus	.	8cc\	-mus	.
4E\	te	.	4g\	te	.	4c\	te	.	4cc\	te	.
4C/	a-	.	(4g\	a-	.	(4c\	a-	.	[4ee\	a-	.
=23	=23	=23	=23	=23	=23	=23	=23	=23	=23	=23	=23
4F\	-do-	.	4a\)	.	.	4A/)	.	.	4ee\]	.	.
8F\L	.	.	4a\	-do-	.	8G/L	-do-	.	4dd\	-do-	.
8E\J	.	.	.	.	.	8F/J	.	.	.	.	.
4.D\	-ra-	.	4.a\	-ra-	.	4.F/	-ra-	.	4.ff\	-ra-	.
8D\	-mus	.	8bn\	-mus	.	8F/	-mus	.	8ff\	-mus	.
=24	=24	=24	=24	=24	=24	=24	=24	=24	=24	=24	=24
4C/	te	.	8cc\	te	.	8G/	te	.	4ee\	te	.
.	.	.	8cc\	glo-	.	8c\	glo-	.	.	.	.
4r	.	.	8cc\	-ri-	.	8c\	-ri-	.	4r	.	.
.	.	.	8cc\	-fi-	.	8c\	-fi-	.	.	.	.
8r	.	.	2cc\	-ca-	.	2c\	-ca-	.	8r	.	.
8E\	glo-	.	.	.	.	.	.	.	8gg\	glo-	.
8E\	-ri-	.	.	.	.	.	.	.	8gg\	-ri-	.
8E\	-fi-	.	.	.	.	.	.	.	[8gg\	-fi-	.
!	!	!	!LO:PB:g=original	!	!	!	!	!	!	!	!
=25	=25	=25	=25	=25	=25	=25	=25	=25	=25	=25	=25
2F\	-ca-	.	2a\	.	.	2.c\	.	.	4gg\]	-ca-	.
.	.	.	.	.	.	.	.	.	4ff\	.	.
2G\	-mus	.	2g\	-mus	.	.	.	.	4ee\	-mus	.
.	.	.	.	.	.	4Bn\	-mus	.	4dd\	.	.
!	!	!	!	!	!	!LO:PB:g=original	!	!	!	!	!
=26	=26	=26	=26	=26	=26	=26	=26	=26	=26	=26	=26
4C/	te	.	8g\	te	.	8c\	te	.	4ee\	te	.
.	.	.	8cc\	glo-	.	8c\	glo-	.	.	.	.
4r	.	.	8cc\	-ri-	.	8c\	-ri-	.	4r	.	.
.	.	.	8cc\	-fi-	.	8c\	-fi-	.	.	.	.
8r	.	.	(2cc\	-ca-	.	[2c\	-ca-	.	8r	.	.
8E\	glo-	.	.	.	.	.	.	.	8gg\	glo-	.
8E\	-ri-	.	.	.	.	.	.	.	8gg\	-ri-	.
8E\	-fi-	.	.	.	.	.	.	.	[8gg\	-fi-	.
!LO:PB:g=original	!	!	!	!	!	!	!	!	!	!	!
=27	=27	=27	=27	=27	=27	=27	=27	=27	=27	=27	=27
!LO:TX:t=P:problem= na marginesach źródła zapisano obliczenia matematyczne ołówkiem	!	!	!	!	!	!	!	!	!	!	!
2F\	-ca-	.	2a\)	.	.	2.c\]	.	.	4gg\]	-ca-	.
.	.	.	.	.	.	.	.	.	4ff\	.	.
2G\	-mus	.	2g\	-mus	.	.	.	.	4ee\	.	.
.	.	.	.	.	.	4Bn\	-mus	.	4dd\	-mus	.
!	!	!	!	!	!	!	!	!	!LO:PB:g=original	!	!
=28	=28	=28	=28	=28	=28	=28	=28	=28	=28	=28	=28
2C/	te	.	2e\	te	.	2c\	te	.	2cc\	te	.
4.A\	gra-	.	4.cc\	gra-	.	4.c\	gra-	.	4.ee\	gra-	.
8A\	-ti-	.	8cc\	-ti-	.	8c\	-ti-	.	8ee\	-ti-	.
=29	=29	=29	=29	=29	=29	=29	=29	=29	=29	=29	=29
2A\	-as	.	2cc\	-as	.	2c\	-as	.	2ee\	-as	.
(2A^\	gra-	.	(2cc\	gra-	.	(2c\	gra-	.	[2ff^\	gra-	.
=30	=30	=30	=30	=30	=30	=30	=30	=30	=30	=30	=30
4G#X\)	.	.	4bn\)	.	.	4d\)	.	.	4ff\]	.	.
8G#\	-ti-	.	8b\	-ti-	.	8d\	-ti-	.	8ff\	-ti-	.
8G#\	-as	.	8b\	-as	.	8d\	-as	.	8ff\	-as	.
4G#\	a-	.	4b\	a-	.	4d\	a-	.	4ff\	a-	.
8G#\	-gi-	.	8b\	-gi-	.	8d\	-gi-	.	8ff\	-gi-	.
8G#\	-mus	.	8b\	-mus	.	8d\	-mus	.	8ff\	-mus	.
!	!	!	!	!	!	!LO:PB:g=original	!	!	!	!	!
!	!	!	!LO:PB:g=original	!	!	!	!	!	!	!	!
=31	=31	=31	=31	=31	=31	=31	=31	=31	=31	=31	=31
1Gn	ti-	.	(2.cc\	ti-	.	(2e\	ti-	.	2ee\	ti-	.
.	.	.	.	.	.	2f\)	.	.	2dd\	.	.
.	.	.	4bn\)	.	.	.	.	.	.	.	.
=32	=32	=32	=32	=32	=32	=32	=32	=32	=32	=32	=32
2C/	-bi	.	2cc\	-bi	.	4e\	-bi	.	4cc\	-bi	.
!	!	!	!	!	!	!LO:SIC:l:s=pro-	!	!	!	!	!
.	.	.	.	.	.	8c\	prop-	.	8cc\	pro-	.
.	.	.	.	.	.	8c\	-pter	.	8cc\	-pter	.
!LO:N:vis=1	!	!	!	!	!	!	!	!	!	!	!
2r	.	.	2r	.	.	4c\	ma-	.	4cc\	ma-	.
.	.	.	.	.	.	4c\	-gnam	.	4cc\	-gnam	.
=33	=33	=33	=33	=33	=33	=33	=33	=33	=33	=33	=33
4r	.	.	4r	.	.	4.e\	glo-	.	4.ee\	glo-	.
8G#X\	pro-	.	8bn\	pro-	.	.	.	.	.	.	.
8G#\	-pter	.	8b\	-pter	.	8e\	-ri-	.	8ee\	-ri-	.
4G#\	ma-	.	4b\	ma-	.	4e\	-am	.	4ee\	-am	.
4G#\	-gnam	.	4b\	-gnam	.	4r	.	.	4r	.	.
!	!	!	!	!	!	!	!	!	!LO:PB:g=original	!	!
!LO:PB:g=original	!	!	!	!	!	!	!	!	!	!	!
=34	=34	=34	=34	=34	=34	=34	=34	=34	=34	=34	=34
4.A\	glo-	.	4.cc\	glo-	.	2A\	tu-	.	1ee	tu-	.
8A\	-ri-	.	8cc\	-ri-	.	.	.	.	.	.	.
2Gn\	-am	.	2bn\	-am	.	(2Bn\	.	.	.	.	.
=35	=35	=35	=35	=35	=35	=35	=35	=35	=35	=35	=35
1F	tu-	.	1a	tu-	.	4c\)	.	.	2ee\	.	.
.	.	.	.	.	.	4Bn\	.	.	.	.	.
.	.	.	.	.	.	4.A\	.	.	2dd#X\	.	.
.	.	.	.	.	.	8B\	.	.	.	.	.
=36	=36	=36	=36	=36	=36	=36	=36	=36	=36	=36	=36
2E\	-am	.	2g#X\	-am	.	2Bn\	-am	.	2ee\	-am	.
2r	.	.	(2g#\	Do-	.	2r	.	.	[2bn\	Do-	.
!	!	!	!	!	!	!LO:PB:g=original	!	!	!	!	!
=37	=37	=37	=37	=37	=37	=37	=37	=37	=37	=37	=37
!LO:TX:a:t=1.	!	!	!	!	!	!LO:TX:a:t=1.	!	!	!	!	!
1r	.	.	4g#X\	.	.	1r	.	.	4bn\]	.	.
.	.	.	4f#X\)	.	.	.	.	.	4a\	.	.
.	.	.	4e\	-mi-	.	.	.	.	4g#X\	-mi-	.
.	.	.	(4f#\	-ne	.	.	.	.	4a\	-ne	.
!	!	!	!LO:PB:g=original	!	!	!	!	!	!	!	!
=38	=38	=38	=38	=38	=38	=38	=38	=38	=38	=38	=38
!	!	!	!	!	!	!	!	!	!LO:SIC:s=2bn	!	!
4r	.	.	2g#X\)	.	.	2r	.	.	2b-\	.	.
2E^\	De-	.	.	.	.	.	.	.	.	.	.
!	!	!	!	!	!	!	!	!	!LO:SIC:s=2bn	!	!
.	.	.	(2g#\	Pa-	.	[2e\	Pa-	.	(2b-\	Pa-	.
4D\	-us	.	.	.	.	.	.	.	.	.	.
=39	=39	=39	=39	=39	=39	=39	=39	=39	=39	=39	=39
4C/	Pa-	.	4a\)	.	.	4e\]	.	.	4a\)	-ter	.
(4BBn/	-ter	.	4g#X\	-ter	.	4d\	-ter	.	4bn\	.	.
4AA/)	o-	.	4a\	o-	.	4c\	o-	.	4cc\	o-	.
4C/	-mni-	.	[4e\	-mni-	.	4c\	-mni-	.	4a\	-mni-	.
=40	=40	=40	=40	=40	=40	=40	=40	=40	=40	=40	=40
2E\	-po-	.	2e\]	-po-	.	2Bn\	-po-	.	2g#X\	-po-	.
2E\	.	.	2e\	.	.	2c\	.	.	2a\	.	.
=41	=41	=41	=41	=41	=41	=41	=41	=41	=41	=41	=41
2E\	-tens	.	2e\	-tens	.	2Bn\	-tens	.	2g#X\	-tens	.
[2G#X\	Do-	.	2r	.	.	[2B\	Do-	.	2r	.	.
!LO:PB:g=original	!	!	!	!	!	!	!	!	!	!	!
=42	=42	=42	=42	=42	=42	=42	=42	=42	=42	=42	=42
!	!	!	!LO:TX:a:t=1.	!	!	!	!	!	!LO:TX:a:t=1.	!	!
4G#\]	.	.	1r	.	.	4Bn\]	.	.	1r	.	.
4F#X\	.	.	.	.	.	4A\	.	.	.	.	.
4E\	.	.	.	.	.	4G#X/	.	.	.	.	.
4F#\	-mi-	.	.	.	.	4A\	-mi-	.	.	.	.
=43	=43	=43	=43	=43	=43	=43	=43	=43	=43	=43	=43
2G#X\	-ni	.	2r	.	.	2Bn\	-ne	.	4r	.	.
.	.	.	.	.	.	.	.	.	2ee^\	De-	.
2G#\	fi-	.	2e\	fi-	.	2B\	fi-	.	.	.	.
!	!	!	!	!	!	!LO:PB:g=original	!	!	!	!	!
.	.	.	.	.	.	.	.	.	(4dd\	-us	.
!	!	!	!	!	!	!	!	!	!LO:PB:g=original	!	!
=44	=44	=44	=44	=44	=44	=44	=44	=44	=44	=44	=44
4A\	-li-	.	4e\	-li	.	4A\	-li-	.	4cc\)	fi-	.
4G#X\	-i	.	4d\	u-	.	4Bn\	-i	.	4bn\	-lii	.
4A\	u-	.	4c\	-ni-	.	4c\	u-	.	4a\	u-	.
4A\	-ni-	.	4a\	-ge-	.	4c\	-ni-	.	4cc\	-ni-	.
=45	=45	=45	=45	=45	=45	=45	=45	=45	=45	=45	=45
2E\	-ge-	.	2g#X\	-ni-	.	2Bn\	-ge-	.	2ee\	-ge-	.
2E\	-ni-	.	2a\	.	.	2c\	-ni-	.	2ee\	-ni-	.
!	!	!	!LO:PB:g=original	!	!	!	!	!	!	!	!
=46	=46	=46	=46	=46	=46	=46	=46	=46	=46	=46	=46
2E\	-te	.	2g#X\	-te	.	2Bn\	-te	.	2ee\	-te.	.
2D^\	Je-	.	2g#^\	Je-	.	2Bn^\	Je-	.	[2ff^\	Je-	.
=47	=47	=47	=47	=47	=47	=47	=47	=47	=47	=47	=47
2C/	-su	.	2.a\	-su	.	2c\	-su	.	4ff\]	-su	.
.	.	.	.	.	.	.	.	.	4ee\	Chris-	.
2BBn/	Chri-	.	.	.	.	2d\	Chri-	.	2dd\	.	.
.	.	.	4g#X\	Chri-	.	.	.	.	.	.	.
=48	=48	=48	=48	=48	=48	=48	=48	=48	=48	=48	=48
2AA/	-ste	.	4a\	-ste	.	2e\	-ste	.	2cc\	-te	.
.	.	.	2a\	De-	.	.	.	.	.	.	.
2AA/	De-	.	.	.	.	2e\	.	.	(2cc#X\	Do-	.
.	.	.	4g\	-us	.	.	.	.	.	.	.
!LO:PB:g=original	!	!	!	!	!	!	!	!	!	!	!
=49	=49	=49	=49	=49	=49	=49	=49	=49	=49	=49	=49
2AA/	.	.	(4f\	A-	.	4d\	Do-	.	4dd\)	.	.
.	.	.	4e\)	.	.	4c#X\	.	.	4ee\	.	.
2AA/	-us	.	4d\	-gnus	.	4d\	-mi-	.	4ffn\	-mi-	.
.	.	.	4f\	.	.	4A\	-ne	.	4dd\	-ne	.
!	!	!	!	!	!	!LO:PB:g=original	!	!	!	!	!
=50	=50	=50	=50	=50	=50	=50	=50	=50	=50	=50	=50
1AA	A-	.	(2e\	De-	.	(4A\	De-	.	2cc#X\	De-	.
.	.	.	.	.	.	4G\)	.	.	.	.	.
.	.	.	2d\)	-us	.	2F/	-us	.	2dd\	-us	.
=51	=51	=51	=51	=51	=51	=51	=51	=51	=51	=51	=51
1AA	-gnus	.	2d\	A-	.	2F/	A-	.	2bn\	A-	.
.	.	.	2Bn/	-gnus	.	2E/	-gnus	.	(2g#X\	-gnus	.
=52	=52	=52	=52	=52	=52	=52	=52	=52	=52	=52	=52
!	!	!	!LO:TX:t=P:problem=diminuendo like accent	!	!	!	!	!	!	!	!
1AA^<	De-	.	1c#X^	De-	.	1E^<	De-	.	[1a^)	De-	.
!	!	!	!	!	!	!	!	!	!LO:PB:g=original	!	!
!	!	!	!LO:PB:g=original	!	!	!	!	!	!	!	!
=53	=53	=53	=53	=53	=53	=53	=53	=53	=53	=53	=53
2AA/	-i	.	2c#X\	-i	.	2E/	-i	.	2a\]	-i	.
4r	.	.	4r	.	.	4r	.	.	4r	.	.
=54||	=54||	=54||	=54||	=54||	=54||	=54||	=54||	=54||	=54||	=54||	=54||
*k[f#g#c#]	*	*	*k[g#c#f#]	*	*	*k[g#c#f#]	*	*	*k[f#c#g#]	*	*
*M3/4	*	*	*M3/4	*	*	*M3/4	*	*	*M3/4	*	*
!LO:TX:t=P:problem=kolejność znaków F# G# C#	!	!	!LO:TX:t=P:problem=kolejność znaków g# c# f#	!	!	!LO:TX:t=P:problem=kolejność znaków G# c# F#	!	!	!	!	!
!LO:TX:a:B:t=Andante.	!	!	!LO:TX:a:B:t=Andante	!	!	!LO:TX:a:B:t=Andante	!	!	!	!	!
8r	.	.	8r	.	.	8r	.	.	8r	.	.
!	!	!	!	!	!	!	!	!	!LO:TX:a:i:t=dolce.	!	!
8A\	Qui	.	8a\	Qui	.	8e\	Qui	.	8cc#\	Qui	.
=55	=55	=55	=55	=55	=55	=55	=55	=55	=55	=55	=55
!	!	!	!	!	!	!	!	!	!LO:TX:a:B:t=Andante.	!	!
4d\	tol-	.	4g#\	tol-	.	4e^\	tol-	.	4b\	tol-	.
4c#\	-lis	.	4a\	-lis	.	4e\	-lis	.	4a\	-lis	.
8r	.	.	8r	.	.	8r	.	.	8r	.	.
8A\	qui	.	8a\	qui	.	8e\	qui	.	8cc#\	qui	.
=56	=56	=56	=56	=56	=56	=56	=56	=56	=56	=56	=56
4d\	tol-	.	4g#^\	tol-	.	4e^\	tol-	.	4b\	tol-	.
8c#\	-lis	.	8a\	-lis	.	8e\	-lis	.	8a\	-lis	.
8A\	pec-	.	8e\	pec-	.	8c#\	pec-	.	8a\	pec-	.
8.G#\	-ca-	.	8e\	-ca-	.	8B\	-ca-	.	8.dd\	-ca-	.
.	.	.	8e\	-ta	.	8A\	-ta	.	.	.	.
16A\	-ta	.	.	.	.	.	.	.	16cc#\	-ta	.
!	!	!	!	!	!	!LO:PB:g=original	!	!	!	!	!
!LO:PB:g=original	!	!	!	!	!	!	!	!	!	!	!
=57	=57	=57	=57	=57	=57	=57	=57	=57	=57	=57	=57
4E\	mun-	.	4e\	mun-	.	4A/	mun-	.	4cc#\	mun-	.
8E\	-di.	.	8e\	-di	.	8G#/	-di	.	8b\	-di	.
8r	.	.	8r	.	.	8r	.	.	8r	.	.
!	!	!	!	!	!	!	!	!	!	!	!LO:DY:a
4r	.	.	4r	.	.	8.d\	mi-	.	8.b\	mi-	p
.	.	.	.	.	.	16B\	-se-	.	16g#\	-se-	.
=58	=58	=58	=58	=58	=58	=58	=58	=58	=58	=58	=58
!LO:N:vis=4	!	!	!	!	!	!	!	!	!	!	!
2r	.	.	4r	.	.	(2.B\	-re-	.	(2.g#\	-re-	.
.	.	.	8.fn\	mi-	.	.	.	.	.	.	.
.	.	.	16e\	-se-	.	.	.	.	.	.	.
!	!	!	!LO:TX:t=P:\right:problem	!	!	!	!	!	!	!	!
8.E\	mi-	.	4e\	-re-	.	.	.	.	.	.	.
16D\	-se-	.	.	.	.	.	.	.	.	.	.
!	!	!	!LO:PB:g=original	!	!	!	!	!	!	!	!
=59	=59	=59	=59	=59	=59	=59	=59	=59	=59	=59	=59
4C#/	-re-	.	4e\	-re-	.	2.A\)	-re	.	[2.a\)	-re	.
4D/	.	.	4fn\	-re	.	.	.	.	.	.	.
4C#/	-re	.	4e\	.	.	.	.	.	.	.	.
!	!	!	!	!	!	!	!	!	!LO:PB:g=original	!	!
=60	=60	=60	=60	=60	=60	=60	=60	=60	=60	=60	=60
8.BB/L	no-	.	[4d\	no-	.	4B\	no-	.	(8.a\L]	no-	.
16E/Jk	.	.	.	.	.	.	.	.	16g#\Jk)	.	.
8E/	-bis	.	8d\]	-bis	.	8B\	-bis	.	8g#\	-bis	.
8r	.	.	8r	.	.	8r	.	.	8r	.	.
8r	.	.	8r	.	.	8r	.	.	8r	.	.
8AA/	Qui	.	8e\	Qui	.	8A\	Qui	.	8cc#\	Qui	.
=61	=61	=61	=61	=61	=61	=61	=61	=61	=61	=61	=61
!LO:SIC:l:s=tol-	!	!	!LO:SIC:l:s=tol-	!	!	!LO:SIC:l:s=tol-	!	!	!LO:SIC:l:s=tol-	!	!
4D/	to-	.	4e\	to-	.	4G#/	to-	.	4b^\	to-	.
8C#/	-lis	.	8e\	-lis	.	8A/	-lis	.	8a\	-lis	.
!LO:N:vis=8	!	!	!LO:N:vis=8	!	!	!LO:N:vis=8	!	!	!LO:N:vis=8	!	!
4r	.	.	4r	.	.	4r	.	.	4r	.	.
8AA/	qui	.	8e\	qui	.	8A/	qui	.	(8cc#^\	qui	.
=62	=62	=62	=62	=62	=62	=62	=62	=62	=62	=62	=62
!LO:SIC:l:s=tol-	!	!	!LO:SIC:l:s=tol-	!	!	!LO:SIC:l:s=tol-	!	!	!LO:SIC:l:s=tol-	!	!
4D/	to-	.	4e\	to-	.	4G#/	to-	.	4b\)	to-	.
8C#/	-lis	.	8d\	-lis	.	8A/	-lis	.	8a\	-lis	.
8C#/	pec-	.	8a\	pec-	.	8A/	pec-	.	8a\	pec-	.
8.F#\	-ca-	.	8.a\	-ca-	.	8.A/	-ca-	.	8.dd\	-ca-	.
16E\	-ta	.	16a\	-ta	.	16A/	-ta	.	16cc#\	-ta	.
!	!	!	!	!	!	!LO:PB:g=original	!	!	!	!	!
!LO:PB:g=original	!	!	!	!	!	!	!	!	!	!	!
=63	=63	=63	=63	=63	=63	=63	=63	=63	=63	=63	=63
(8.D\L	mun-	.	4a\	mun-	.	8.A\L	mun-	.	4ff#\	mun-	.
16F#\Jk)	.	.	.	.	.	16d\Jk	.	.	.	.	.
4A\	-di	.	8a\	-di	.	8c#\	-di	.	8ee\	-di	.
.	.	.	8r	.	.	8r	.	.	8r	.	.
4r	.	.	4r	.	.	8.e\	mi-	.	8.cc#\	mi-	.
.	.	.	.	.	.	16c#\	-sere-	.	16a\	-se-	.
!	!	!	!LO:PB:g=original	!	!	!	!	!	!	!	!
=64	=64	=64	=64	=64	=64	=64	=64	=64	=64	=64	=64
4r	.	.	4r	.	.	2.e\	.	.	2.cc#\	-re-	.
8.B-X\	mi-	.	4r	.	.	.	.	.	.	.	.
16A\	-se-	.	.	.	.	.	.	.	.	.	.
[4A\	-re-	.	8.a\L	mi-	.	.	.	.	.	.	.
.	.	.	16g#\Jk	-se-	.	.	.	.	.	.	.
=65	=65	=65	=65	=65	=65	=65	=65	=65	=65	=65	=65
!	!	!	!LO:SIC:l:s=-re-	!	!	!	!	!	!	!	!
2A\]	.	.	(4fn\	.	.	(4fn\	.	.	4dd\	.	.
.	.	.	4gn\)	.	.	4e\)	.	.	4cc#\	.	.
4A\	-re	.	4f\	-re	.	4f\	-re	.	4dd\	-re	.
=66	=66	=66	=66	=66	=66	=66	=66	=66	=66	=66	=66
4A\	no-	.	4a\	no-	.	8.fn\L	no-	.	8.dd\L	no-	.
.	.	.	.	.	.	16e\Jk	.	.	16cc#\Jk	.	.
8A\	-bis	.	8a\	-bis	.	8e\	-bis	.	8cc#\	-bis	.
8r	.	.	8r	.	.	8r	.	.	8r	.	.
4Gn\	Qui	.	4r	.	.	4r	.	.	4r	.	.
!	!	!	!	!	!	!	!	!	!LO:PB:g=original	!	!
=67	=67	=67	=67	=67	=67	=67	=67	=67	=67	=67	=67
4Fn\	ſe-	.	4r	.	.	4r	.	.	4r	.	.
4E\	-des	.	4r	.	.	4r	.	.	4r	.	.
4D\	ad	.	4fn\	Qui	.	4A\	Qui	.	4dd\	Qui	.
=68	=68	=68	=68	=68	=68	=68	=68	=68	=68	=68	=68
4.A\	dex-	.	4e\	ſe-	.	4A\	ſe-	.	4cc#X\	ſe-	.
.	.	.	4e\	-des	.	4A\	-des	.	4b\	-des	.
8A\	-te-	.	.	.	.	.	.	.	.	.	.
!	!	!	!LO:SIC:s=4gn	!	!	!	!	!	!	!	!
4A\	-ram	.	4g#\	ad	.	4A\	ad	.	4a\	ad	.
!LO:PB:g=original	!	!	!	!	!	!	!	!	!	!	!
=69	=69	=69	=69	=69	=69	=69	=69	=69	=69	=69	=69
[2.D\	Pa-	.	4.fn\	dex-	.	4.A/	dex-	.	4.dd\	dex-	.
.	.	.	8e\	-te-	.	8G#/	-te-	.	8dd\	-te-	.
.	.	.	4d\	-ram	.	4Fn/	-ram	.	4dd\	-ram	.
!	!	!	!	!	!	!LO:PB:g=original	!	!	!	!	!
!	!	!	!LO:PB:g=original	!	!	!	!	!	!	!	!
=70	=70	=70	=70	=70	=70	=70	=70	=70	=70	=70	=70
4.D\]	.	.	2fn\	Pa-	.	2d\	Pa-	.	2dd\	Pa-	.
8Cn/	.	.	.	.	.	.	.	.	.	.	.
4BB-X/	-tris	.	4f\	-tris	.	4d\	-tris	.	4dd\	-tris	.
=71	=71	=71	=71	=71	=71	=71	=71	=71	=71	=71	=71
4.AA/	mi-	.	4.gn\	mi-	.	4.e\	mi-	.	4.cc#X\	mi-	.
8AA/	-se-	.	8g\	-se-	.	8e\	-se-	.	8cc#\	-se-	.
8.BB-X/	-re-	.	8.g\	-re-	.	8.e\	-re-	.	8.dd\	-re-	.
16BB-/	-re	.	16g\	-re	.	16e\	-re	.	16dd\	-re	.
=72	=72	=72	=72	=72	=72	=72	=72	=72	=72	=72	=72
!	!	!	!LO:SIC:s=4gn	!	!	!	!	!	!	!	!
4AA/	[no]-	.	4g#\	no-	.	4e\	no-	.	4cc#X\	no-	.
!	!	!	!LO:SIC:s=8gn	!	!	!	!	!	!	!	!
8AA/	-bis	.	8g#\	-bis	.	8e\	-bis	.	8cc#\	-bis.	.
8r	.	.	8r	.	.	8r	.	.	8r	.	.
8.A\	mi-	.	4r	.	.	4r	.	.	4r	.	.
16A\	-se-	.	.	.	.	.	.	.	.	.	.
=73	=73	=73	=73	=73	=73	=73	=73	=73	=73	=73	=73
!	!	!	!LO:TX:a:t=1.	!	!	!LO:TX:a:t=1.	!	!	!LO:TX:a:t=1.	!	!
(4.A\	-re-	.	2.r	.	.	2.r	.	.	2.r	.	.
8Gn\)	.	.	.	.	.	.	.	.	.	.	.
8.Fn\L	-re	.	.	.	.	.	.	.	.	.	.
16E\Jk	.	.	.	.	.	.	.	.	.	.	.
=74	=74	=74	=74	=74	=74	=74	=74	=74	=74	=74	=74
!	!	!	!	!	!	!	!	!	!	!	!LO:DY:a
2.D/	no-	.	2.fn\	no-	.	2.A\	no-	.	2.dd\	no-	pp
!LO:PB:g=original	!	!	!	!	!	!	!	!	!	!	!
=75	=75	=75	=75	=75	=75	=75	=75	=75	=75	=75	=75
2.Cn/	-bis	.	2.gn\	-bis	.	2.B-X\	-bis	.	2.ee\	-bis.	.
!	!	!	!	!	!	!	!	!	!LO:PB:g=original	!	!
=76||	=76||	=76||	=76||	=76||	=76||	=76||	=76||	=76||	=76||	=76||	=76||
*k[b-]	*	*	*k[b-]	*	*	*k[b-]	*	*	*k[b-]	*	*
*M2/2	*	*	*M2/2	*	*	*M2/2	*	*	*M2/2	*	*
*met(c|)	*	*	*met(c|)	*	*	*met(c|)	*	*	*met(c|)	*	*
!LO:TX:t=P:problem=oznaczenie metryczne alla breve z ogonkiem	!	!	!	!	!	!LO:TX:t=P:problem=oznaczenie metryczne alla breve z ogonkiem	!	!	!LO:TX:t=P:problem=oznaczenie metryczne alla breve z ogonkiem	!	!
!LO:TX:a:B:t=Tempo I&colon;	!	!	!LO:TX:a:B:t=Tempo Im.	!	!	!LO:TX:a:B:t=Tempo I.	!	!	!LO:TX:a:B:t=Tempo Im.	!	!
!	!	!	!	!	!	!	!	!	!	!	!LO:DY:b
4.F\	Quo-	.	4.a\	Quo-	.	4.c\	Quo-	.	4.ff\	Quo-	f
8F\	-ni-	.	8a\	-ni-	.	8f\	-ni-	.	8cc\	-ni-	.
4F\	-am	.	4a\	-am	.	4f\	-am	.	4cc\	-am	.
4r	.	.	4r	.	.	4r	.	.	4r	.	.
!	!	!	!LO:PB:g=original	!	!	!	!	!	!	!	!
=77	=77	=77	=77	=77	=77	=77	=77	=77	=77	=77	=77
4.F\	quo-	.	4.a\	quo-	.	4.f\	quo-	.	4.cc\	quo-	.
8F\	-ni-	.	8f\	-ni-	.	8c\	-ni-	.	8a\	-ni-	.
4F\	-am	.	4f\	-am	.	4c\	-am	.	4a\	-am	.
4F\	tu	.	4f\	tu	.	4c\	tu	.	4a\	tu	.
!	!	!	!	!	!	!LO:PB:g=original	!	!	!	!	!
=78	=78	=78	=78	=78	=78	=78	=78	=78	=78	=78	=78
4E\	so-	.	4g\	so-	.	4c\	so-	.	4b-\	so-	.
4F\	-lus	.	4f\	-lus	.	4c\	-lus	.	4a\	-lus	.
4D\	so-	.	4a\	so-	.	4f\	so-	.	4dd\	so-	.
4C\	-lus	.	4a\	-lus	.	4e\	-lus	.	4ee\	-lus	.
=79	=79	=79	=79	=79	=79	=79	=79	=79	=79	=79	=79
2BBn/	ſan-	.	2g\	ſan-	.	2d^\	ſan-	.	2ff^\	ſan-	.
4BB/	-ctus	.	4g\	-ctus	.	4d\	-ctus	.	4ff\	-ctus	.
4r	.	.	4r	.	.	4r	.	.	4r	.	.
=80	=80	=80	=80	=80	=80	=80	=80	=80	=80	=80	=80
!	!	!	!	!	!	!	!	!	!	!	!LO:DY:a
4.C/	Quo-	.	4.g\	Quo-	.	4.c\	Quo-	.	4.ee\	Quo-	f
8C/	-ni-	.	8g\	-ni-	.	8e\	-ni-	.	8cc\	-ni-	.
4C/	-am	.	4g\	-am	.	4e\	-am	.	4cc\	-am	.
4r	.	.	4r	.	.	4r	.	.	4r	.	.
!LO:PB:g=original	!	!	!	!	!	!	!	!	!	!	!
=81	=81	=81	=81	=81	=81	=81	=81	=81	=81	=81	=81
!	!	!	!	!	!	!	!	!	!	!	!LO:DY:a
4.C/	quo-	.	4.g\	quo-	.	4.e\	quo-	.	4.cc\	quo-	f
8C/	-ni-	.	8e\	-ni-	.	8c\	-ni-	.	8g\	-ni-	.
4C/	-am	.	4e\	-am	.	4c\	-am	.	4g\	-am	.
4C/	tu	.	4e\	tu	.	4c\	tu	.	4g\	tu	.
!	!	!	!	!	!	!	!	!	!LO:PB:g=original	!	!
=82	=82	=82	=82	=82	=82	=82	=82	=82	=82	=82	=82
!	!	!	!	!	!	!	!	!	!	!	!LO:DY:a
4F\	so-	.	4f\	so-	.	4c\	so-	.	4a\	so-	<
4D\	-lus	.	4f\	-lus	.	4B-\	-lus	.	4b-\	-lus	.
4BB-\	so-	.	4f\	so-	.	4B-\	so-	.	4dd\	so-	[
4AA/	-lus	.	4f#X\	-lus	.	4d\	-lus	.	4cc\	-lus	.
=83	=83	=83	=83	=83	=83	=83	=83	=83	=83	=83	=83
!	!	!	!	!	!	!	!	!	!	!	!LO:DY:a
4.GG/	Do-	.	4.g\	Do-	.	4.d\	Do-	.	4.b-\	Do-	>
8GG/	-mi-	.	8g\	-mi-	.	8d\	-mi-	.	8b-\	-mi-	.
4GG/	-nus	.	4g\	-nus	.	4d\	-nus	.	4b-\	-nus	]
4GG/	Al-	.	4g\	Al-	.	4d\	Al-	.	4b-\	Al-	.
!	!	!	!	!	!	!LO:PB:g=original	!	!	!	!	!
!	!	!	!LO:PB:g=original	!	!	!	!	!	!	!	!
=84	=84	=84	=84	=84	=84	=84	=84	=84	=84	=84	=84
!	!	!	!	!	!	!	!	!	!	!	!LO:DY:a
4.C/	-tiſ-	.	4.g\	-tiſ-	.	4.B-\	-tiſ-	.	4.ee\	-tiſ-	f
8C/	-si-	.	8g\	-si-	.	8B-\	-si-	.	8ee\	-si-	.
4C/	-mus	.	4g\	-mus	.	4B-\	-mus	.	4ee\	-mus	.
4r	.	.	4r	.	.	4r	.	.	4r	.	.
=85	=85	=85	=85	=85	=85	=85	=85	=85	=85	=85	=85
!	!	!	!	!	!	!	!	!	!	!	!LO:DY:a
2D/	Je-	.	2f\	Je-	.	2A\	Je-	.	2ff\	Je-	f
2C/	-su	.	2f\	-su	.	2A\	-su	.	2ff\	-su	.
=86	=86	=86	=86	=86	=86	=86	=86	=86	=86	=86	=86
2BB-/	Chr-	.	1g	Chri-	.	(2d\	Chri-	.	(2ff\	Chri-	.
2C/	.	.	.	.	.	4c\	.	.	2ee\)	.	.
.	.	.	.	.	.	4B-\)	.	.	.	.	.
!LO:PB:g=original	!	!	!	!	!	!	!	!	!	!	!
=87||	=87||	=87||	=87||	=87||	=87||	=87||	=87||	=87||	=87||	=87||	=87||
!LO:TX:a:B:t=piu di moto.	!	!	!LO:TX:a:B:t=piu di moto	!	!	!LO:TX:a:B:t=piu di moto.	!	!	!LO:TX:a:B:t=Piu di moto.	!	!
4F\	-ste	.	2f\	-ste	.	2A\	-ste	.	2ff\	-ste	.
4c\	Cum	.	.	.	.	.	.	.	.	.	.
4c\	ſan-	.	2r	.	.	2r	.	.	2r	.	.
4c\	-cto	.	.	.	.	.	.	.	.	.	.
=88	=88	=88	=88	=88	=88	=88	=88	=88	=88	=88	=88
!	!	!	!LO:TX:a:t=9.	!	!	!LO:TX:a:t=4.	!	!	!LO:TX:a:t=14.	!	!
4A\	ſpi-	.	1r	.	.	1r	.	.	1r	.	.
8G\L	-ri-	.	.	.	.	.	.	.	.	.	.
8F\J	.	.	.	.	.	.	.	.	.	.	.
4A\	-tu	.	.	.	.	.	.	.	.	.	.
4Bn\	in	.	.	.	.	.	.	.	.	.	.
=89	=89	=89	=89	=89	=89	=89	=89	=89	=89	=89	=89
4.c\	glo-	.	1r	.	.	1r	.	.	1r	.	.
8G\	-ri-	.	.	.	.	.	.	.	.	.	.
4G\	-a	.	.	.	.	.	.	.	.	.	.
4r	.	.	.	.	.	.	.	.	.	.	.
=90	=90	=90	=90	=90	=90	=90	=90	=90	=90	=90	=90
2E\	De-	.	1r	.	.	1r	.	.	1r	.	.
2G\	-i	.	.	.	.	.	.	.	.	.	.
=91	=91	=91	=91	=91	=91	=91	=91	=91	=91	=91	=91
4c\	Pa-	.	1r	.	.	1r	.	.	1r	.	.
4A\	-tris	.	.	.	.	.	.	.	.	.	.
4B-\	A-	.	.	.	.	.	.	.	.	.	.
(8c\L	.	.	.	.	.	.	.	.	.	.	.
8B-\J)	.	.	.	.	.	.	.	.	.	.	.
!LO:PB:g=original	!	!	!	!	!	!	!	!	!	!	!
=92	=92	=92	=92	=92	=92	=92	=92	=92	=92	=92	=92
4A\	.	.	1r	.	.	4r	.	.	1r	.	.
8F\L	.	.	.	.	.	4f\	Cum	.	.	.	.
8G\J	.	.	.	.	.	.	.	.	.	.	.
4A\	.	.	.	.	.	4f\	ſan-	.	.	.	.
4F\	.	.	.	.	.	4f\	-cto	.	.	.	.
=93	=93	=93	=93	=93	=93	=93	=93	=93	=93	=93	=93
2c\	.	.	1r	.	.	4e\	ſpi-	.	1r	.	.
.	.	.	.	.	.	8d\L	-ri-	.	.	.	.
.	.	.	.	.	.	8c\J	.	.	.	.	.
2B-\	.	.	.	.	.	4d\	-tu	.	.	.	.
.	.	.	.	.	.	4e\	in	.	.	.	.
!	!	!	!	!	!	!LO:PB:g=original	!	!	!	!	!
=94	=94	=94	=94	=94	=94	=94	=94	=94	=94	=94	=94
2.A\	.	.	1r	.	.	4.f\	glo-	.	1r	.	.
.	.	.	.	.	.	8c\	-ri-	.	.	.	.
.	.	.	.	.	.	4c\	-a	.	.	.	.
4G\	.	.	.	.	.	4r	.	.	.	.	.
=95	=95	=95	=95	=95	=95	=95	=95	=95	=95	=95	=95
4F\	.	.	1r	.	.	2A\	De-	.	1r	.	.
8G\L	.	.	.	.	.	.	.	.	.	.	.
8F\J	.	.	.	.	.	.	.	.	.	.	.
4E\	.	.	.	.	.	2c\	-i	.	.	.	.
8F\L	.	.	.	.	.	.	.	.	.	.	.
8E\J	.	.	.	.	.	.	.	.	.	.	.
=96	=96	=96	=96	=96	=96	=96	=96	=96	=96	=96	=96
4D/	.	.	1r	.	.	4f\	Pa-	.	1r	.	.
4C/	.	.	.	.	.	4e\	-tris	.	.	.	.
4AA/	.	.	.	.	.	4f\	.	.	.	.	.
4BBn/	.	.	.	.	.	(8g\L	A-	.	.	.	.
.	.	.	.	.	.	8f\J)	.	.	.	.	.
=97	=97	=97	=97	=97	=97	=97	=97	=97	=97	=97	=97
4C/	-men	.	4r	.	.	4e\	.	.	1r	.	.
4r	.	.	4cc\	Cum	.	8c\L	.	.	.	.	.
.	.	.	.	.	.	8d\J	.	.	.	.	.
2C/	A-	.	4cc\	ſan-	.	4e\	.	.	.	.	.
.	.	.	4cc\	-cto	.	4c\	.	.	.	.	.
!LO:PB:g=original	!	!	!	!	!	!	!	!	!	!	!
=98	=98	=98	=98	=98	=98	=98	=98	=98	=98	=98	=98
1D	.	.	4a\	ſpi-	.	1f	.	.	1r	.	.
.	.	.	8g\L	-ri-	.	.	.	.	.	.	.
.	.	.	8f\J	.	.	.	.	.	.	.	.
.	.	.	4a\	-tu	.	.	.	.	.	.	.
.	.	.	4bn\	in	.	.	.	.	.	.	.
=99	=99	=99	=99	=99	=99	=99	=99	=99	=99	=99	=99
4C/	-men	.	4.cc\	glo-	.	2.e\	.	.	1r	.	.
2c\	A-	.	.	.	.	.	.	.	.	.	.
.	.	.	8g\	-ri-	.	.	.	.	.	.	.
.	.	.	4g\	-a	.	.	.	.	.	.	.
4Bn\	.	.	4r	.	.	4d\	.	.	.	.	.
!	!	!	!LO:PB:g=original	!	!	!	!	!	!	!	!
=100	=100	=100	=100	=100	=100	=100	=100	=100	=100	=100	=100
4A\	.	.	2e\	De-	.	4c\	.	.	1r	.	.
8B-\L	.	.	.	.	.	8d\L	.	.	.	.	.
8A\J	.	.	.	.	.	8c\J	.	.	.	.	.
4G\	.	.	2g\	-i	.	4Bn\	.	.	.	.	.
8A\L	.	.	.	.	.	8c\L	.	.	.	.	.
8G\J	.	.	.	.	.	8B\J	.	.	.	.	.
!	!	!	!	!	!	!LO:PB:g=original	!	!	!	!	!
=101	=101	=101	=101	=101	=101	=101	=101	=101	=101	=101	=101
2F\	.	.	4cc\	Pa-	.	4A\	-men	.	1r	.	.
.	.	.	4a\	-tris	.	2f\	A-	.	.	.	.
2G\	.	.	4b-X\	A-	.	.	.	.	.	.	.
.	.	.	(8cc\L	.	.	4e\	.	.	.	.	.
.	.	.	8b-\J)	.	.	.	.	.	.	.	.
=102	=102	=102	=102	=102	=102	=102	=102	=102	=102	=102	=102
1F	.	.	4a\	.	.	4f\	.	.	4r	.	.
.	.	.	8f\L	.	.	8A\L	.	.	4ff\	Cum	.
.	.	.	8g\J	.	.	8B-\J	.	.	.	.	.
.	.	.	4a\	.	.	4c\	.	.	4ff\	ſan-	.
.	.	.	4f\	.	.	4A\	.	.	4ff\	-cto	.
!	!	!	!	!	!	!	!	!	!LO:PB:g=original	!	!
=103	=103	=103	=103	=103	=103	=103	=103	=103	=103	=103	=103
2C/	-men	.	1g	.	.	2c\	.	.	4ee\	ſpi-	.
.	.	.	.	.	.	.	.	.	8dd\L	-ri-	.
.	.	.	.	.	.	.	.	.	8cc\J	.	.
2r	.	.	.	.	.	2B-\	.	.	4dd\	-tu	.
.	.	.	.	.	.	.	.	.	4ee\	in	.
=104	=104	=104	=104	=104	=104	=104	=104	=104	=104	=104	=104
!LO:TX:a:t=3.	!	!	!	!	!	!	!	!	!	!	!
1r	.	.	4f\	-men	.	4A\	-men	.	4.ff\	glo-	.
.	.	.	4a\	.	.	2f\	A-	.	.	.	.
.	.	.	.	.	.	.	.	.	8cc\	-ri-	.
.	.	.	(2g\	A-	.	.	.	.	4cc\	-a	.
.	.	.	.	.	.	4e\	.	.	4r	.	.
=105	=105	=105	=105	=105	=105	=105	=105	=105	=105	=105	=105
1r	.	.	4f\)	.	.	4d\	.	.	2a\	De-	.
.	.	.	8g\L	.	.	8e\L	.	.	.	.	.
.	.	.	8f\J	.	.	8d\J	.	.	.	.	.
.	.	.	4e\	.	.	4c\	.	.	2cc\	-i	.
.	.	.	8f\L	.	.	8d\L	.	.	.	.	.
.	.	.	8e\J	.	.	8c\J	.	.	.	.	.
=106	=106	=106	=106	=106	=106	=106	=106	=106	=106	=106	=106
1r	.	.	4d\	.	.	4Bn\	.	.	4ff\	Pa-	.
.	.	.	4e\	.	.	2c\	.	.	4ee\	-tris	.
.	.	.	2d\	.	.	.	.	.	4ff\	.	.
.	.	.	.	.	.	4B\	.	.	(8gg\L	A-	.
.	.	.	.	.	.	.	.	.	8ff\J)	.	.
!	!	!	!	!	!	!LO:PB:g=original	!	!	!	!	!
!	!	!	!LO:PB:g=original	!	!	!	!	!	!	!	!
!LO:PB:g=original	!	!	!	!	!	!	!	!	!	!	!
=107	=107	=107	=107	=107	=107	=107	=107	=107	=107	=107	=107
4r	.	.	4c\	.	.	4c\	-men	.	4ee\	.	.
4c\	Cum	.	8e\L	.	.	4r	.	.	8cc\L	.	.
.	.	.	8f\J	.	.	.	.	.	8dd\J	.	.
4c\	ſan-	.	4g\	.	.	2c\	A-	.	4ee\	.	.
!LO:SIC:l:s=-cto	!	!	!	!	!	!	!	!	!	!	!
4c\	-cta	.	4e\	.	.	.	.	.	4cc\	.	.
=108	=108	=108	=108	=108	=108	=108	=108	=108	=108	=108	=108
4A\	ſpi-	.	2.f\	.	.	4c\	.	.	1ff	.	.
8G\L	-ri-	.	.	.	.	8B-\L	.	.	.	.	.
8F\J	.	.	.	.	.	8A\J	.	.	.	.	.
4A\	-tu	.	.	.	.	4c\	.	.	.	.	.
4Bn\	in	.	4g\	.	.	4d\	.	.	.	.	.
=109	=109	=109	=109	=109	=109	=109	=109	=109	=109	=109	=109
4.c\	glo-	.	1g	.	.	4c\	-men	.	2.ee\	.	.
.	.	.	.	.	.	2c\	A-	.	.	.	.
8G\	-ri-	.	.	.	.	.	.	.	.	.	.
4G\	-a	.	.	.	.	.	.	.	.	.	.
4r	.	.	.	.	.	[4Bn\	.	.	[4dd\	.	.
!	!	!	!	!	!	!	!	!	!LO:PB:g=original	!	!
=110	=110	=110	=110	=110	=110	=110	=110	=110	=110	=110	=110
2E\	De-	.	2g\	-men	.	4B\]	.	.	4dd\]	.	.
.	.	.	.	.	.	4c\	.	.	2cc\	.	.
2G\	-i	.	4r	.	.	2d\	.	.	.	.	.
.	.	.	8g\L	A-	.	.	.	.	4bn\	.	.
.	.	.	8f\J	.	.	.	.	.	.	.	.
=111	=111	=111	=111	=111	=111	=111	=111	=111	=111	=111	=111
4A\	Pa-	.	2e\	.	.	4c\	.	.	1cc	.	.
4G\	.	.	.	.	.	4Bn\	.	.	.	.	.
4F\	-tris	.	2d\	.	.	2A\	.	.	.	.	.
(8E\L	.	.	.	.	.	.	.	.	.	.	.
8F\J)	.	.	.	.	.	.	.	.	.	.	.
=112	=112	=112	=112	=112	=112	=112	=112	=112	=112	=112	=112
4G\	A-	.	2d\	.	.	4Bn\	.	.	1bn	.	.
4F\	.	.	.	.	.	4A\	.	.	.	.	.
4E\	.	.	2c\	.	.	2G/	.	.	.	.	.
8D\L	.	.	.	.	.	.	.	.	.	.	.
8E\J	.	.	.	.	.	.	.	.	.	.	.
!	!	!	!	!	!	!LO:PB:g=original	!	!	!	!	!
!LO:PB:g=original	!	!	!	!	!	!	!	!	!	!	!
=113	=113	=113	=113	=113	=113	=113	=113	=113	=113	=113	=113
4F\	.	.	2c\	.	.	4A\	.	.	1a	.	.
4E\	.	.	.	.	.	4G\	.	.	.	.	.
4D\	.	.	2Bn/	.	.	2F/	.	.	.	.	.
8C#X\L	.	.	.	.	.	.	.	.	.	.	.
8D\J	.	.	.	.	.	.	.	.	.	.	.
=114	=114	=114	=114	=114	=114	=114	=114	=114	=114	=114	=114
4E/	.	.	2Bn/	.	.	4G/	.	.	1g	.	.
4D/	.	.	.	.	.	4F/	.	.	.	.	.
4C#X/	.	.	2A/	.	.	2E/	.	.	.	.	.
8BBn/L	.	.	.	.	.	.	.	.	.	.	.
8C#/J	.	.	.	.	.	.	.	.	.	.	.
!	!	!	!LO:PB:g=original	!	!	!	!	!	!	!	!
=115	=115	=115	=115	=115	=115	=115	=115	=115	=115	=115	=115
!	!	!	!LO:SIC:s=2An	!	!	!	!	!	!	!	!
2D/	.	.	2A-X/	.	.	2F/	.	.	4f/	-men	.
.	.	.	.	.	.	.	.	.	2ff\	A-	.
2C/	.	.	2B-X^/	.	.	2G^/	.	.	.	.	.
.	.	.	.	.	.	.	.	.	4ee\	.	.
=116	=116	=116	=116	=116	=116	=116	=116	=116	=116	=116	=116
4F\	-men	.	4A/	-men	.	4F/	-men	.	4ff\	-men	.
8F\L	A-	.	4r	.	.	4f\	Cum	.	8a\L	A-	.
8G\J	.	.	.	.	.	.	.	.	8b-\J	.	.
4A\	.	.	2rA	.	.	4f\	ſan-	.	4cc\	.	.
4F\	.	.	.	.	.	4f\	-cta	.	4a\	.	.
=117	=117	=117	=117	=117	=117	=117	=117	=117	=117	=117	=117
!	!	!	!LO:TX:a:t=2.	!	!	!	!	!	!	!	!
4c\	-men	.	1r	.	.	4e\	ſpi-	.	1g	.	.
4c\	Cum	.	.	.	.	8d\L	.	.	.	.	.
.	.	.	.	.	.	8c\J	.	.	.	.	.
4c\	ſan-	.	.	.	.	4d\	-ri-	.	.	.	.
4c\	-cto	.	.	.	.	4e\	-tu	.	.	.	.
!LO:PB:g=original	!	!	!	!	!	!	!	!	!	!	!
=118	=118	=118	=118	=118	=118	=118	=118	=118	=118	=118	=118
4A\	ſpi-	.	1r	.	.	4f\	in	.	4f/	-men	.
8G\L	-ri-	.	.	.	.	4A\	glo-	.	4ff\	cum	.
8F\J	.	.	.	.	.	.	.	.	.	.	.
4G\	-tu	.	.	.	.	4B-\	-ri-	.	4ff\	ſan-	.
4A\	in	.	.	.	.	4c\	-a	.	4ff\	-cta	.
!	!	!	!	!	!	!LO:PB:g=original	!	!	!	!	!
=119	=119	=119	=119	=119	=119	=119	=119	=119	=119	=119	=119
4.B-\	glo-	.	4r	.	.	4d\	De-	.	4dd\	ſpi-	.
.	.	.	4b-\	Cum	.	(8d\L	-i	.	8b-\L	-ri-	.
8BB-/	-ri-	.	.	.	.	8e\J)	.	.	8cc\J	.	.
4BB-/	-a	.	4b-\	ſan-	.	4f\	Pa-	.	4dd\	-tu	.
4r	.	.	4b-\	-cto	.	4d\	-tris	.	4b-\	in	.
!	!	!	!	!	!	!	!	!	!LO:PB:g=original	!	!
=120	=120	=120	=120	=120	=120	=120	=120	=120	=120	=120	=120
2.F\	De-	.	4b-\	ſpi-	.	2.c\	A-	.	2.cc\	Glo-	.
.	.	.	8a\L	-ri-	.	.	.	.	.	.	.
.	.	.	8g\J	.	.	.	.	.	.	.	.
.	.	.	4a\	-tu	.	.	.	.	.	.	.
4E-X\	-i	.	[4cc\	in	.	4A\	.	.	4ff\	-ri-	.
=121	=121	=121	=121	=121	=121	=121	=121	=121	=121	=121	=121
2.D\	Pa-	.	4cc\]	glo-	.	1F	.	.	1ff	-a	.
.	.	.	8b-\L	-ri-	.	.	.	.	.	.	.
.	.	.	8a\J	.	.	.	.	.	.	.	.
.	.	.	4b-\	-a	.	.	.	.	.	.	.
4D-X\	-tris	.	4bn\	A-	.	.	.	.	.	.	.
=122	=122	=122	=122	=122	=122	=122	=122	=122	=122	=122	=122
1C	A-	.	1cc	.	.	1G	.	.	1ee	A-	.
=123	=123	=123	=123	=123	=123	=123	=123	=123	=123	=123	=123
4C/	-men	.	4cc\	-men	.	4G/	-men	.	4ee\	-men	.
4c\	Cum	.	4cc\	Cum	.	4c\	Cum	.	4cc\	Cum	.
4c\	ſan-	.	4cc\	ſan-	.	4c\	ſan-	.	4cc\	ſan-	.
4c\	-cto	.	4cc\	-cto	.	4c\	-cto	.	4cc\	-cto	.
!LO:PB:g=original	!	!	!	!	!	!	!	!	!	!	!
=124	=124	=124	=124	=124	=124	=124	=124	=124	=124	=124	=124
4A\	ſpi-	.	4a\	ſpi-	.	4A/	ſpi-	.	4a\	ſpi-	.
8G\L	-ri-	.	8g\L	-ri-	.	8G/L	-ri-	.	8g\L	-ri-	.
8F\J	.	.	8f\J	.	.	8F/J	.	.	8f\J	.	.
4G\	-tu	.	4g\	-tu	.	4G/	-tu	.	4g\	-tu	.
4A\	in	.	4a\	in	.	4A/	in	.	4a\	in	.
!	!	!	!	!	!	!LO:PB:g=original	!	!	!	!	!
!	!	!	!LO:PB:g=original	!	!	!	!	!	!	!	!
=125	=125	=125	=125	=125	=125	=125	=125	=125	=125	=125	=125
4.B-\	glo-	.	4.b-\	glo-	.	4.B-\	glo-	.	4.b-\	glo-	.
8F\	-ri-	.	8f\	-ri-	.	8F/	-ri-	.	8f/	-ri-	.
4F\	-a	.	4f\	-a	.	4F/	-a	.	4f/	-a	.
4r	.	.	4r	.	.	4r	.	.	4r	.	.
=126	=126	=126	=126	=126	=126	=126	=126	=126	=126	=126	=126
2D\	De-	.	2d\	De-	.	2D/	De-	.	2d/	De-	.
2F\	-i	.	2f\	-i	.	2F/	-i	.	2f/	-i	.
=127	=127	=127	=127	=127	=127	=127	=127	=127	=127	=127	=127
4B-\	Pa-	.	4b-\	Pa-	.	4B-\	pa-	.	4b-\	Pa-	.
4A\	-tris	.	4a\	-tris	.	4A\	-tris	.	4a\	-tris	.
4G\	A-	.	4g\	A-	.	4G/	A-	.	(4g\	A-	.
(8c\L	.	.	(8cc\L	.	.	(8c\L	.	.	8cc\L	.	.
8B-\J)	.	.	8b-\J)	.	.	8B-\J)	.	.	8b-\J)	.	.
!	!	!	!	!	!	!	!	!	!LO:PB:g=original	!	!
=128	=128	=128	=128	=128	=128	=128	=128	=128	=128	=128	=128
2A\	.	.	2a\	.	.	(2A\	.	.	1a	.	.
2D/	.	.	[2f\	.	.	[2d\)	.	.	.	.	.
=129	=129	=129	=129	=129	=129	=129	=129	=129	=129	=129	=129
2BB-/	.	.	2f\]	.	.	2d\]	.	.	1g	.	.
2C/	.	.	2e\	.	.	[2c\	.	.	.	.	.
!LO:PB:g=original	!	!	!	!	!	!	!	!	!	!	!
=130	=130	=130	=130	=130	=130	=130	=130	=130	=130	=130	=130
2F\	-men	.	2f\	-men	.	2c\]	-men	.	2a\	-men	.
2D/	A-	.	2a\	A-	.	[2d\	A-	.	[2ff\	A-	.
=131	=131	=131	=131	=131	=131	=131	=131	=131	=131	=131	=131
2BB-/	.	.	1g	.	.	2d\]	.	.	2ff\]	.	.
2C/	.	.	.	.	.	2c\	.	.	2ee\	.	.
!	!	!	!	!	!	!LO:PB:g=original	!	!	!	!	!
=132	=132	=132	=132	=132	=132	=132	=132	=132	=132	=132	=132
(4AA/	.	.	[1f	.	.	4c\	.	.	[1ff	.	.
4GG/	.	.	.	.	.	4B-\	.	.	.	.	.
4FF/	.	.	.	.	.	4A\	.	.	.	.	.
4GG/)	.	.	.	.	.	4B-\	.	.	.	.	.
=133	=133	=133	=133	=133	=133	=133	=133	=133	=133	=133	=133
2FF/	-men	.	2f\]	-men	.	4A\	.	.	4ff\]	.	.
.	.	.	.	.	.	4c\	.	.	4ee\	.	.
2r	.	.	2r	.	.	4B-\	.	.	4dd\	.	.
.	.	.	.	.	.	4A\	.	.	4cc\	.	.
!	!	!	!LO:PB:g=original	!	!	!	!	!	!	!	!
=134	=134	=134	=134	=134	=134	=134	=134	=134	=134	=134	=134
!LO:N:vis=2	!	!	!	!	!	!	!	!	!	!	!
2.BB-/	A-	.	[1f	A-	.	[1B-	.	<[	[1dd	.	.
4D/	.	.	.	.	.	.	.	.	.	.	.
!	!	!	!	!	!	!	!	!	!LO:PB:g=original	!	!
=135	=135	=135	=135	=135	=135	=135	=135	=135	=135	=135	=135
!	!	!	!	!	!	!LO:TX:t=P:problem=diminuendo like accent	!	!	!	!	!
1F	.	.	1f]	.	.	2.B-^\]	.	.	2.dd\]	.	<[
.	.	.	.	.	.	4A\	.	.	4cc\	.	>]
=136	=136	=136	=136	=136	=136	=136	=136	=136	=136	=136	=136
!LO:N:vis=0	!	!	!LO:N:vis=0	!	!	!LO:N:vis=0	!	!	!LO:N:vis=0	!	!
1F	-men.	.	1f	-men.	.	1A	-men	.	1cc	-men.	.
==	==	==	==	==	==	==	==	==	==	==	==
*-	*-	*-	*-	*-	*-	*-	*-	*-	*-	*-	*-
!!!RDF**kern: < = above
!!!system-decoration: [(s1,s2,s3,s4)]
!!!ENC: Andrzej Kubiczek
!!!END: 2020-12-08
!!!ENC: Jan Barakat
!!!END: 2022-01-07
